X: 30621
T: One To One
R: waltz
M: 3/4
K: Gmajor
G3A Bd|e2d2e2|g3 dd g|B2 A4|
G3A Bd|e2d2e2|g2 a2 ab|a4 a2|
bg gb ag|e2 d2 de|gd dg dB|A2G4||
[1 G3A Bd|eg3d dB|A2G3A|G6:|
[2 G3 A Bd|eg dB AG|~E D3 DE|G6||
|:b2 b2b2|a2 a2 a2|ga ge dB|~A2 G2 (3GBd|
b4 (3GBd|a4 (3GBd|ge dB AG|A6|
ba gb ag|~e2 d2 de|gd de dB|~A2 G4|
[1 G3A Bd|eg3dd B|A2G3A|G6:|
[2 G3A Bd|eg dB AG|(3EGE D2 E2|G6:|

